app/dist/common/images/insteel-industries-inc.svg

<svg height="18" viewBox="0 0 18 18" width="18" xmlns="http://www.w3.org/2000/svg"><path d="m0 0h18v18h-18z" fill="#f0f3fa"/><path d="m7.64 14h6.36v-5.47c-5.94 2.07-6.78 4.29-6.36 5.47z" fill="#95a2ab"/><path d="m8 4h2v4.79c-.77.3-1.52.84-2 1.14zm-1 6.45v-6.45h-3v9.9c.41-1.32 1.64-2.52 3-3.45zm7-2.85v-3.6h-3v4.46a24.8 24.8 0 0 1 3-.86z" fill="#015289"/></svg>

<!-- by TradingView --><svg width="18" height="18" viewBox="0 0 18 18" xmlns="http://www.w3.org/2000/svg"><path fill="#F0F3FA" d="M0 0h18v18H0z"/><path d="M7.64 14H14V8.53C8.06 10.6 7.22 12.82 7.64 14Z" fill="#95A2AB"/><path d="M8 4h2v4.79c-.77.3-1.52.84-2 1.14V4ZM7 10.45V4H4v9.9c.41-1.32 1.64-2.52 3-3.45ZM14 7.6V4h-3v4.46a24.8 24.8 0 0 1 3-.86Z" fill="#015289"/></svg>
